!!!COM:	Pierre de la Rue
**kern	**kern
*part2	*part1
*staff2	*staff1
*clefF4	*clefGv2
*k[]	*k[]
*M2/1	*M2/1
=1-	=1-
1r	1c
[1F	2d
.	[2f
=2	=2
1F]	2f]
.	2e
1F	2d
.	4c
.	4B
=3	=3
1F	1A
2G	2.G
[2B-X	.
.	4A
=4	=4
4B-]	4B
4A	4c
4G	2d
4F	.
2G	2G
2E	[2c
=5	=5
1D	2c]
.	2B
2C	1c
[2F	.
=6	=6
2F]	1r
2E	.
2F	[1c
2G	.
=7	=7
2A	1c]
1F	.
.	[1c
2E	.
=8	=8
2F	2c]
2G	2B
2A	2c
2F	2d
=9	=9
2G	2e
1A	4c
.	4B
.	4c
.	4d
4G	4e
4F	4f
=10	=10
2E	2g
2F	1f
1G	.
.	2e
=11	=11
1F	2.f
.	4e
2r	2d
2F	[2c
=12	=12
2E	2c]
1F	4B
.	4A
.	2G
2E	2c
=13	=13
2F	2A
2c	2F
2A	2r
2F	[2c
=14	=14
2r	4c]
.	4B
2.c	4A
.	4G
.	2F
4B	.
4A	[2c
4G	.
=15	=15
2F	2c]
2E	2c
1D	2d
.	[2f
=16	=16
1C	2f]
.	2e
2r	1d
[2F	.
=17	=17
2F]	2c
2F	2f
2G	2e
[2B-X	[2d
=18	=18
4B-]	4d]
4A	4c
4G	4B
4F	4A
2G	2B
[2A	[2c
=19	=19
4A]	4c]
4G	4B
1F	2A
.	1G
2E	.
=20	=20
0F	0F
==	==
*-	*-
